internal/xmp/testdata/full.xmp
<?xpacket begin="﻿" id="W5M0MpCehiHzreSzNTczkc9d"?>
<x:xmpmeta xmlns:x="adobe:ns:meta/" x:xmptk="marraw">
 <rdf:RDF xmlns:rdf="http://www.w3.org/1999/02/22-rdf-syntax-ns#">
  <rdf:Description rdf:about=""
    xmlns:xmp="http://ns.adobe.com/xap/1.0/"
    xmlns:tiff="http://ns.adobe.com/tiff/1.0/"
    xmlns:crs="http://ns.adobe.com/camera-raw-settings/1.0/"
    xmp:Rating="4"
    xmp:Label="Green"
    tiff:Orientation="4"
    crs:Version="15.4"
    crs:ProcessVersion="11.0"
    crs:WhiteBalance="Custom"
    crs:Temperature="5500"
    crs:Tint="+30"
    crs:Exposure2012="+0.50"
    crs:Contrast2012="+25"
    crs:Highlights2012="-40"
    crs:Shadows2012="+30"
    crs:Whites2012="+10"
    crs:Blacks2012="-10"
    crs:Texture="+10"
    crs:Clarity2012="+20"
    crs:Dehaze="-10"
    crs:Vibrance="+35"
    crs:Saturation="-15"
    crs:Sharpness="75"
    crs:SharpenRadius="+1.0"
    crs:SharpenDetail="25"
    crs:SharpenEdgeMasking="0"
    crs:LuminanceSmoothing="25"
    crs:ColorNoiseReduction="25"
    crs:HueAdjustmentRed="-40"
    crs:HueAdjustmentOrange="-30"
    crs:HueAdjustmentYellow="-20"
    crs:HueAdjustmentGreen="-10"
    crs:HueAdjustmentAqua="0"
    crs:HueAdjustmentBlue="+10"
    crs:HueAdjustmentPurple="+20"
    crs:HueAdjustmentMagenta="+30"
    crs:SaturationAdjustmentRed="-30"
    crs:SaturationAdjustmentOrange="-20"
    crs:SaturationAdjustmentYellow="-10"
    crs:SaturationAdjustmentGreen="0"
    crs:SaturationAdjustmentAqua="+10"
    crs:SaturationAdjustmentBlue="+20"
    crs:SaturationAdjustmentPurple="+30"
    crs:SaturationAdjustmentMagenta="+40"
    crs:LuminanceAdjustmentRed="+40"
    crs:LuminanceAdjustmentOrange="+30"
    crs:LuminanceAdjustmentYellow="+20"
    crs:LuminanceAdjustmentGreen="+10"
    crs:LuminanceAdjustmentAqua="0"
    crs:LuminanceAdjustmentBlue="-10"
    crs:LuminanceAdjustmentPurple="-20"
    crs:LuminanceAdjustmentMagenta="-30"
    crs:SplitToningShadowHue="210"
    crs:SplitToningShadowSaturation="30"
    crs:SplitToningHighlightHue="45"
    crs:SplitToningHighlightSaturation="20"
    crs:SplitToningBalance="0"
    crs:PostCropVignetteAmount="-40"
    crs:PostCropVignetteMidpoint="50"
    crs:PostCropVignetteFeather="50"
    crs:PostCropVignetteRoundness="0"
    crs:PostCropVignetteStyle="1"
    crs:PostCropVignetteHighlightContrast="0"
    crs:HasCrop="True"
    crs:CropLeft="0.100000"
    crs:CropTop="0.400000"
    crs:CropRight="0.600000"
    crs:CropBottom="0.800000"
    crs:CropAngle="1.500000"
    crs:CropConstrainToWarp="0"
    crs:HasSettings="True"/>
 </rdf:RDF>
</x:xmpmeta>
<?xpacket end="w"?>
